X:1
T: Merry Mary
C:
R:Jig
Q:180
K:D
M:6/8
L:1/16
D2F2A2 A2B2c2|d2c2B2 A4A2|B4E2 E2F2G2|F2E2F2 D6|D2F2A2 A2B2c2|d2c2B2 A4A2|B2c2d2 e2d2c2|d6d6|
D2F2A2 A2B2c2|d2c2B2 A4A2|B4E2 E2F2G2|F2E2F2 D6|D2F2A2 A2B2c2|d2c2B2 A4A2|B2c2d2 e2d2c2|d6d6|
f2d2f2 e2c2e2|d2c2B2 A4A2|B4E2 E2F2G2|F2E2F2 D6|f2d2f2 e2c2e2|d2c2B2 A4A2|B2c2d2 e2d2c2|d6d6|
f2d2f2 e2c2e2|d2c2B2 A4A2|B4E2 E2F2G2|F2E2F2 D6|f2d2f2 e2c2e2|d2c2B2 A4A2|B2c2d2 e2d2c2|d6d6||
